assets/images/icons/vk-icon.svg

<svg width="35" height="34" viewBox="0 0 35 34" fill="none" xmlns="http://www.w3.org/2000/svg">
<path d="M4.20001 0C3.20987 0 2.26028 0.393332 1.56014 1.09347C0.860007 1.7936 0.466675 2.74319 0.466675 3.73333V29.8667C0.466675 30.8568 0.860007 31.8064 1.56014 32.5065C2.26028 33.2067 3.20987 33.6 4.20001 33.6H30.3333C31.3235 33.6 32.2731 33.2067 32.9732 32.5065C33.6733 31.8064 34.0667 30.8568 34.0667 29.8667V3.73333C34.0667 2.74319 33.6733 1.7936 32.9732 1.09347C32.2731 0.393332 31.3235 0 30.3333 0H4.20001ZM5.13334 10.2667H7.93334C8.60534 10.2667 8.86667 10.5653 9.12801 11.3307C10.472 15.2507 12.7307 18.6667 13.664 18.6667C14.0187 18.6667 14.1867 18.5173 14.1867 17.64V13.5893C14.0747 11.7227 13.0853 11.5547 13.0853 10.9013C13.0853 10.584 13.3467 10.2667 13.7947 10.2667H18.1067C18.704 10.2667 18.8907 10.584 18.8907 11.2747V16.7253C18.8907 17.304 19.1333 17.5093 19.32 17.5093C19.6747 17.5093 19.9733 17.304 20.608 16.6693C22.5867 14.448 23.9867 11.0507 23.9867 11.0507C24.1733 10.64 24.4907 10.2667 25.1813 10.2667H27.9253C28.7653 10.2667 28.952 10.696 28.7653 11.2747C28.4107 12.88 25.0693 17.6027 25.0693 17.6027C24.7333 18.0693 24.6587 18.2933 25.0693 18.8347C25.3493 19.2267 26.32 20.048 26.9547 20.8133C28.1493 22.1387 29.0267 23.2587 29.288 24.024C29.512 24.808 29.12 25.2 28.336 25.2H25.5733C24.528 25.2 24.2293 24.36 22.3627 22.4933C20.72 20.9253 20.0667 20.72 19.6187 20.72C19.0587 20.72 18.8907 20.8693 18.8907 21.672V24.136C18.8907 24.808 18.6853 25.2 16.9307 25.2C14.0187 25.2 10.808 23.4267 8.54934 20.16C5.13334 15.3813 4.20001 11.7787 4.20001 11.0507C4.20001 10.64 4.34934 10.2667 5.13334 10.2667Z" fill="#333333"/>
</svg>

<svg width="35" height="34" fill="none" xmlns="http://www.w3.org/2000/svg"><path d="M4.2 0A3.733 3.733 0 0 0 .467 3.733v26.134A3.733 3.733 0 0 0 4.2 33.6h26.133a3.733 3.733 0 0 0 3.734-3.733V3.733A3.733 3.733 0 0 0 30.333 0H4.2zm.933 10.267h2.8c.672 0 .934.298 1.195 1.064 1.344 3.92 3.603 7.336 4.536 7.336.355 0 .523-.15.523-1.027v-4.05c-.112-1.867-1.102-2.035-1.102-2.689 0-.317.262-.634.71-.634h4.312c.597 0 .784.317.784 1.008v5.45c0 .579.242.784.429.784.355 0 .653-.205 1.288-.84 1.979-2.221 3.379-5.618 3.379-5.618.186-.411.504-.784 1.194-.784h2.744c.84 0 1.027.429.84 1.008-.354 1.605-3.696 6.328-3.696 6.328-.336.466-.41.69 0 1.232.28.392 1.251 1.213 1.886 1.978 1.194 1.326 2.072 2.446 2.333 3.211.224.784-.168 1.176-.952 1.176h-2.763c-1.045 0-1.344-.84-3.21-2.707-1.643-1.568-2.296-1.773-2.744-1.773-.56 0-.728.15-.728.952v2.464c0 .672-.206 1.064-1.96 1.064-2.912 0-6.123-1.773-8.382-5.04C5.133 15.381 4.2 11.779 4.2 11.05c0-.41.15-.783.933-.783z" fill="#333"/></svg>
